X:1
T:James Gibb editions
T:Psalm 51 (Becker) - Schütz
%%score [ ( 1 2 ) ( 3 4 ) ]
L:1/8
Q:1/4=90
M:2/2
K:C
V:1 treble nm="Soprano Alto"
V:2 treble 
V:3 bass nm="Tenor Bass"
V:4 bass 
V:1
"^Cornelius Becker\n(1561-1604)""^Psalm 51, SWV 148""^Heinrich Schütz\n(1585-1672)" E4 G2 G2 | %1
w: ~Er- barm dich|
w: wasch ab, mach|
 A2 B2 c2 B2 | A4 G4 | c2 B2 c2 A2 | G2 F2 E4 :|[M:2/2] E4 | A2 A2 G2 c2 | BG A2 G4 | G4 c2 G2 | %9
w: mein, o Her- re|Gott, nach|dei- ner groß'n Barm-|her- zig- keit,|al-|lein ich dir ge-|sün- di- get hab,|das ist wi-|
w: rein mein Mis- se-|tat, ich|erkenn mein Sünd und|ist mir leid,|||||
 A2 E (A2 G) F2 | E4 E4 | A2 A2 G2 E2 | (FE) D2 C4 | C4 G2 A2 | B4 c4 | G2 (A4 E2 | A3 G F4) | %17
w: der mich ste\- * tig-|lich, das|Bös vor dir mag|nicht * be- stahn,|du bleibst ge-|recht, ob|man ur\- *||
w: ||||||||
 E4 E8 |] %18
w: teilt dich.|
w: |
V:2
 B,4 E2 D2 | F2 D2 E2 E2 | E4 C4 | E2 E2 E2 F2 | E2 D2 B,4 :|[M:2/2] C4 | F2 C2 E2 C2 | DD D2 D4 | %8
w: ||||||||
 C4 E2 C2 | C2 C (C2 E) D2 | ^C4 =C4 | F2 F2 E2 C2 | (D C2) B, C4 | G,4 C2 C2 | E4 (E3 D | %15
w: ||||nicht * be- stahn,|du bleibst ge-|recht, ob *|
 C3 B, A,2) E2 | (C4 D4) | C4 B,8 |] %18
w: * * * man|ur\- *|teilt dich.|
V:3
 G,4 C2 B,2 | A,2 G,2 (E, A,2) ^G, | A,4 E,4 | A,2 =G,2 A,2 C2 | C2 A,2 ^G,4 :|[M:2/2] A,4 | %6
w: ||||||
 C2 F,2 G,2 A,2 | D, G,2 ^F, G,4 | E,4 A,2 E,2 | F,2 G, (F,/G,/A,/B,/C) A,2 | A,4 A,4 | %11
w: |||||
 C2 C2 C2 G,2 | %12
w: |
 (_B,G,)"^3. Herr, sieh nicht an die Sünde mein, tu ab all Ungerechtigkeit,\nund mach in mir das Herze rein, ein'n neuen Geist in mir bereit,\nverwirf mich nicht von dein'm Angesicht, dein heilgen Geist wend nicht von mir, \ndie Freud deins Heils, Herr, zu mir richt, der willig Geist erhalt mich dir.\n\n4. Die Gottlos'n will ich dein' Weg, die Sünder auch dazu lehren,\ndaß sie vom bösen falschen Steg zu dir durch dich sich bekehren.\nBeschirm mich, Herr, mein Heil, mein Gott, vor dem Urteil durchs Blut bedeut, \nmein Zung verkünd dein recht Gebot, schaff, daß mein Mund dein Lob ausbreit.\n\n5. Kein leiblich Opfer von mir heischst, ich hätt dir das auch gegeben,\nso nimm nun den zerknirschten Geist, betrübst und traurigs Herz daneb'n.\nVerschmäh nicht, Gott, das Opfer dein, tu wohl in deiner Gütigkeit \ndem Berg Zion, da Christen sein, die opfern dir Gerechtigkeit." G,2 G,4 | %13
w: nicht * be- stahn,|
 E,4 E,2 E,2 | ^G,4 (A,B,CD | E2) A,2 C3 B, | A,=G, A,3 D, A,2- | A,2 A,2 ^G,8 |] %18
w: du bleibst ge-|recht, ob * * *|* man ur\- *||* teilt dich.|
V:4
 E,4 C,2 G,,2 | D,2 B,,2 A,,2 E,2 | A,,4 C,4 | A,,2 E,2 A,2 F,2 | C,2 D,2 E,4 :|[M:2/2] A,,4 | %6
w: ||||||
 F,,2 F,,2 C,2 A,,2 | G,,B,, D,2 G,,4 | C,4 A,,2 C,2 | F,,2 C, (F,2 C,) D,2 | A,,4 A,,4 | %11
w: |||||
 F,,2 F,2 C,2 C,2 | (_B,,C,) G,,2 C,4 | C,4 C,2 A,,2 | E,4 (A,,3 B,, | C,2) (F,,G,,A,,B,, C,2) | %16
w: |nicht * be- stahn,|du bleibst ge-|recht, ob *|* man * * * *|
 (F,3 E,) D,4 | A,,4 E,8 |] %18
w: ur\- * *|teilt dich.|

